lib/preview/nrk-logo-preview-nrk-radio-title-below-on-dark.svg

<svg width="44" height="31" viewBox="0 0 44 31" fill="none" xmlns="http://www.w3.org/2000/svg">
<path d="M0 12.9968V0.997916H3.93719V12.9968H0ZM9.29381 2.90761L11.5581 12.9968H7.24917L4.54549 0.997916H6.96218C7.51635 0.990724 8.05406 1.18607 8.4745 1.54722C8.89562 1.89321 9.18495 2.37352 9.29381 2.90761ZM12.1495 12.9968V0.997916H16.0867V12.9968H12.1495ZM19.0605 5.56093C18.6362 5.56506 18.2188 5.45406 17.8525 5.23979C17.4912 5.03095 17.1911 4.73079 16.9823 4.36942C16.7678 4.00316 16.6568 3.58559 16.661 3.16114C16.6561 2.73929 16.7672 2.32421 16.9823 1.96125C17.1933 1.60382 17.4931 1.30692 17.8525 1.09935C18.2189 0.885329 18.6362 0.774341 19.0605 0.77821C19.4822 0.773668 19.8971 0.884755 20.2602 1.09935C20.616 1.30874 20.9127 1.60539 21.122 1.96125C21.3368 2.32431 21.4479 2.73932 21.4433 3.16114C21.4473 3.58555 21.3363 4.00305 21.122 4.36942C20.9149 4.7292 20.6179 5.02911 20.2602 5.23979C19.8971 5.4548 19.4819 5.56592 19.0599 5.56093H19.0605ZM22.0516 12.9968V0.997916H25.9892V12.9968H22.0516ZM30.9737 7.55506C30.9848 7.5667 31.0693 7.70471 31.2272 7.9691C31.3851 8.23349 31.5907 8.57151 31.8439 8.98312C32.0974 9.39453 32.3649 9.83108 32.6463 10.2928C32.9278 10.7546 33.1926 11.1912 33.4408 11.6026C33.6881 12.014 33.9697 12.4788 34.2857 12.9968H29.9598C29.6893 12.5574 29.4441 12.1603 29.2245 11.8054C29.0048 11.4505 28.7713 11.0674 28.5238 10.6562C28.2758 10.2453 28.0306 9.84536 27.7882 9.45629C27.5458 9.06722 27.3375 8.72644 27.1633 8.43388C26.9883 8.14114 26.8671 7.94395 26.7997 7.84236C26.6325 7.59027 26.5336 7.29912 26.5127 6.99737C26.5294 6.70776 26.6226 6.4278 26.7828 6.18594C26.8504 6.07327 26.9743 5.87325 27.1545 5.58596C27.3348 5.29866 27.546 4.95788 27.7882 4.56355C28.0304 4.16922 28.2756 3.76643 28.5238 3.3552C28.772 2.94397 29.0056 2.55806 29.2245 2.19753C29.4445 1.83738 29.6897 1.43741 29.9598 0.997641H34.2857L30.9396 6.45632C30.8361 6.61839 30.7777 6.80517 30.7706 6.99737C30.7818 7.19915 30.8522 7.39314 30.9731 7.55506H30.9737Z" fill="white"/>
<path d="M5.88318 25.181C6.10798 25.1466 6.32984 25.0948 6.54663 25.0261C6.98597 24.8894 7.39172 24.6621 7.73769 24.3588C8.0823 24.0511 8.35357 23.6701 8.53168 23.2438C8.7319 22.7535 8.82965 22.2274 8.8189 21.6979C8.82645 21.0803 8.69665 20.4686 8.43881 19.9073C8.17242 19.3529 7.73382 18.8995 7.18856 18.6147C6.46104 18.2613 5.65666 18.0957 4.84872 18.1331H0V30.1283H1.75703V25.5329H4.3416L7.33217 30.1283H9.39305L6.58857 25.9725L5.88318 25.181ZM5.91309 19.831C6.26297 19.9644 6.55554 20.2154 6.74063 20.5409C6.93415 20.9192 7.02722 21.3409 7.01093 21.7655C7.03199 22.2355 6.91777 22.7016 6.68178 23.1086C6.45837 23.4552 6.12524 23.7169 5.73566 23.8519C5.26578 24.0135 4.77106 24.0907 4.2743 24.08H1.75703V19.6029H4.47675C4.96569 19.5867 5.45324 19.6641 5.91309 19.831Z" fill="#8BB5EB"/>
<path d="M18.4992 29.0642C18.3757 29.0755 18.2513 29.0568 18.1365 29.0097C18.0218 28.9626 17.9202 28.8885 17.8403 28.7936C17.6836 28.5229 17.6185 28.2089 17.6545 27.8982L17.6883 24.4182C17.692 24.0532 17.6465 23.6894 17.5531 23.3366C17.4709 23.0273 17.3336 22.7355 17.1477 22.4751C16.9596 22.2205 16.7209 22.0077 16.4465 21.85C16.1277 21.669 15.783 21.538 15.4244 21.4616C14.9859 21.3669 14.5383 21.3216 14.0897 21.3265C13.7339 21.3262 13.3783 21.3487 13.0253 21.3938C12.6918 21.4357 12.3616 21.5006 12.037 21.5881C11.736 21.6698 11.4399 21.7686 11.1501 21.884L10.9474 23.3201C11.2289 23.2187 11.4965 23.1342 11.7501 23.0666C12.0038 22.999 12.2486 22.9427 12.4847 22.8977C12.7165 22.8534 12.9506 22.8224 13.1859 22.805C13.4166 22.7878 13.6446 22.7792 13.8701 22.7794C14.2146 22.7721 14.5585 22.812 14.8922 22.8977C15.1357 22.9587 15.3596 23.0808 15.5427 23.2525C15.7056 23.4196 15.8221 23.6263 15.8806 23.8522C15.9526 24.1308 15.9867 24.4179 15.9819 24.7057L15.98 25.1295L14.0052 25.2632C13.3298 25.2821 12.6644 25.4311 12.0455 25.7022C11.5824 25.9049 11.1826 26.2288 10.8882 26.6398C10.6385 27.0056 10.5059 27.4387 10.5081 27.8816C10.5049 28.2971 10.6066 28.7068 10.8037 29.0726C11.0104 29.4485 11.3213 29.7565 11.6991 29.9596C12.16 30.1993 12.6751 30.3158 13.1943 30.2975C13.6808 30.3087 14.1651 30.2284 14.6219 30.061C15.017 29.9065 15.3784 29.677 15.6863 29.3852C15.8031 29.2731 15.914 29.1549 16.0185 29.0312C16.0514 29.2061 16.1133 29.3743 16.2015 29.5288C16.352 29.7875 16.5836 29.9894 16.8604 30.1032C17.1664 30.2261 17.4938 30.2864 17.8234 30.2806C17.9248 30.2806 18.0233 30.2778 18.1191 30.2721C18.2131 30.2667 18.3064 30.2526 18.3978 30.2299C18.4879 30.2074 18.5693 30.1876 18.6428 30.1707C18.709 30.156 18.7739 30.1363 18.8371 30.1116L19.0229 28.9797C18.9297 29.0117 18.8335 29.0344 18.7357 29.0473C18.6573 29.0578 18.5783 29.0635 18.4992 29.0642ZM15.6863 28.3039C15.5032 28.4488 15.3049 28.5734 15.095 28.6756C14.886 28.7774 14.6645 28.8513 14.4363 28.8953C14.1996 28.941 13.9591 28.9636 13.7181 28.9628C13.4427 28.9707 13.1689 28.9188 12.9156 28.8108C12.7094 28.7214 12.5355 28.571 12.4172 28.38C12.3002 28.1775 12.2416 27.9464 12.2482 27.7126C12.2319 27.4309 12.3091 27.1519 12.4678 26.9186C12.6519 26.7041 12.9011 26.5557 13.1774 26.4962C13.6091 26.3946 14.0522 26.3492 14.4955 26.3611H15.9746L15.967 28.0381C15.8811 28.1345 15.7873 28.2236 15.6863 28.3039Z" fill="#8BB5EB"/>
<path d="M26.4911 21.7365C26.4739 21.7297 26.4579 21.7215 26.4404 21.7147C26.1247 21.5958 25.7998 21.5026 25.469 21.436C25.0823 21.3598 24.689 21.3231 24.2949 21.3265C23.5567 21.3219 22.8307 21.5144 22.1918 21.884C21.5322 22.2675 20.9913 22.8259 20.629 23.4974C20.2132 24.2908 20.0094 25.1783 20.0377 26.0736C20.0183 26.8465 20.1713 27.6141 20.4854 28.3206C20.7596 28.924 21.2065 29.4325 21.7697 29.7819C22.3752 30.1384 23.069 30.317 23.7714 30.2972C24.2023 30.2998 24.6315 30.2429 25.0469 30.1282C25.4609 30.0095 25.8561 29.8332 26.2211 29.6045C26.3475 29.5265 26.4745 29.439 26.6007 29.3475L26.8127 30.1282H28.2147V17.3898L26.4914 17.6263L26.4911 21.7365ZM25.5873 28.6837C25.2021 28.8355 24.7932 28.9186 24.3793 28.929C23.8965 28.9431 23.4186 28.8293 22.994 28.5993C22.5989 28.3657 22.2905 28.0099 22.1155 27.5856C21.8963 27.0412 21.7927 26.4571 21.8114 25.8705C21.7916 25.2697 21.9071 24.6721 22.1492 24.1219C22.3556 23.6755 22.6949 23.3037 23.1207 23.0576C23.584 22.8054 24.1057 22.6801 24.633 22.6943C24.9043 22.6937 25.1753 22.7135 25.4437 22.7535C25.71 22.7947 25.9727 22.8569 26.2293 22.9396C26.3118 22.9658 26.4027 23.0007 26.4911 23.0328V28.2397C26.2037 28.415 25.9009 28.5636 25.5864 28.6837H25.5873Z" fill="#8BB5EB"/>
<path d="M30.8491 30.1282H32.5724V21.3431L30.8491 21.5965V30.1282Z" fill="#8BB5EB"/>
<path d="M32.3274 17.8037C32.152 17.6965 31.95 17.6409 31.7445 17.6432C31.5364 17.6415 31.3319 17.6971 31.1532 17.8037C30.977 17.9069 30.829 18.0519 30.7224 18.226C30.6153 18.4014 30.5596 18.6034 30.5619 18.8089C30.5602 19.017 30.6157 19.2215 30.7224 19.4002C30.8256 19.577 30.9744 19.7229 31.1532 19.8226C31.3336 19.924 31.5375 19.9765 31.7445 19.9746C31.9489 19.9771 32.1502 19.9246 32.3274 19.8226C32.5012 19.7221 32.6444 19.5761 32.7413 19.4002C32.8428 19.2198 32.8953 19.0159 32.8933 18.8089C32.8958 18.6045 32.8433 18.4032 32.7413 18.226C32.6409 18.0528 32.4986 17.9075 32.3274 17.8037Z" fill="#8BB5EB"/>
<path d="M42.8439 23.3958C42.5073 22.7499 41.9872 22.2179 41.349 21.8668C40.6451 21.493 39.8567 21.3069 39.0598 21.3265C38.2556 21.308 37.4604 21.5002 36.7534 21.884C36.1008 22.2492 35.5671 22.7946 35.216 23.4549C34.8348 24.1959 34.646 25.0209 34.667 25.854C34.6454 26.6805 34.8221 27.5002 35.1823 28.2445C35.5059 28.8943 36.0221 29.4283 36.6605 29.7738C37.3478 30.1337 38.115 30.3138 38.8906 30.2972C39.7026 30.3134 40.5052 30.1214 41.2221 29.7397C41.8915 29.3746 42.4404 28.8229 42.8019 28.1516C43.1942 27.4019 43.389 26.5647 43.3679 25.7188C43.3871 24.9132 43.2071 24.1152 42.8439 23.3958ZM41.2474 27.5265C41.0577 27.9656 40.736 28.3346 40.3269 28.5824C39.9159 28.8177 39.4489 28.9375 38.9754 28.929C38.511 28.9405 38.0532 28.8172 37.6575 28.574C37.2661 28.3138 36.9604 27.9435 36.7791 27.5099C36.5492 26.9534 36.4399 26.3544 36.4584 25.7526C36.4384 25.1671 36.5478 24.5844 36.7791 24.0462C36.9686 23.6232 37.2843 23.2692 37.6829 23.0326C38.1092 22.798 38.5903 22.6814 39.0767 22.6947C39.4564 22.6852 39.8338 22.7572 40.1833 22.9059C40.4895 23.044 40.7566 23.2559 40.9608 23.5225C41.1784 23.8124 41.3362 24.1427 41.4251 24.4942C41.5307 24.9052 41.5819 25.3283 41.5771 25.7526C41.5968 26.3608 41.4843 26.966 41.2474 27.5265Z" fill="#8BB5EB"/>
</svg>

<svg xmlns="http://www.w3.org/2000/svg" viewBox="0 0 44 31"><path fill="#fff" d="M0 12.997v-12h3.937v12H0Zm9.294-10.09 2.264 10.09H7.25l-2.704-12h2.417a2.276 2.276 0 0 1 1.513.55c.42.346.71.827.819 1.36Zm2.855 10.09v-12h3.938v12h-3.938Zm6.912-7.436a2.381 2.381 0 0 1-2.4-2.4 2.301 2.301 0 0 1 .321-1.2A2.41 2.41 0 0 1 20.26 1.1c.356.21.653.506.862.862.215.363.326.778.321 1.2a2.35 2.35 0 0 1-.321 1.208 2.4 2.4 0 0 1-.862.87 2.302 2.302 0 0 1-1.2.322Zm2.99 7.436v-12h3.938v12h-3.937Zm8.923-5.442c.01.012.095.15.253.414s.364.603.617 1.014a315.218 315.218 0 0 1 1.597 2.62c.247.411.529.876.845 1.394H29.96c-.27-.44-.516-.837-.736-1.192-.22-.354-.453-.738-.7-1.149-.248-.41-.493-.81-.736-1.2-.242-.389-.45-.73-.625-1.022-.175-.293-.296-.49-.363-.592a1.747 1.747 0 0 1-.287-.845c.016-.29.11-.57.27-.811.067-.113.191-.313.371-.6s.392-.628.634-1.022c.242-.395.488-.798.736-1.209l.7-1.157.736-1.2h4.326L30.94 6.456a1.08 1.08 0 0 0-.17.541c.012.202.082.396.203.558Z"/><path fill="#8BB5EB" d="M5.883 25.181a4.4 4.4 0 0 0 .664-.155c.439-.137.845-.364 1.19-.667.345-.308.617-.689.795-1.115.2-.49.298-1.017.287-1.546a4.168 4.168 0 0 0-.38-1.79 2.852 2.852 0 0 0-1.25-1.293 4.843 4.843 0 0 0-2.34-.482H0v11.995h1.757v-4.595h2.585l2.99 4.595h2.061L6.59 25.973l-.706-.792Zm.03-5.35c.35.133.643.384.828.71.193.378.286.8.27 1.224.021.47-.093.937-.33 1.344a1.844 1.844 0 0 1-.945.743c-.47.162-.965.239-1.462.228H1.757v-4.477h2.72c.489-.016.976.061 1.436.228ZM18.5 29.064a.77.77 0 0 1-.66-.27 1.453 1.453 0 0 1-.186-.896l.034-3.48a4.065 4.065 0 0 0-.135-1.081 2.657 2.657 0 0 0-.405-.862 2.291 2.291 0 0 0-.701-.625 3.582 3.582 0 0 0-1.023-.388 6.011 6.011 0 0 0-1.334-.136c-.356 0-.712.023-1.065.068a7.287 7.287 0 0 0-.988.194c-.301.082-.597.18-.887.296l-.203 1.436a9.906 9.906 0 0 1 1.538-.422c.232-.045.466-.076.7-.093.232-.017.46-.026.685-.026.345-.007.689.033 1.022.119.244.06.468.183.65.355.164.167.28.373.339.6.072.278.106.565.1.853l-.001.424-1.975.133a5.25 5.25 0 0 0-1.96.44 2.809 2.809 0 0 0-1.157.937c-.25.366-.382.799-.38 1.242a2.47 2.47 0 0 0 .296 1.19c.206.377.517.684.895.888.461.24.976.356 1.495.337.487.012.971-.069 1.428-.236a3.288 3.288 0 0 0 1.064-.676 4.65 4.65 0 0 0 .332-.354 1.6 1.6 0 0 0 .183.498c.151.259.383.46.66.574.305.123.633.183.962.178.102 0 .2-.003.296-.009.094-.005.187-.02.279-.042l.245-.06c.066-.014.13-.034.194-.058l.186-1.132a1.48 1.48 0 0 1-.287.067 1.91 1.91 0 0 1-.237.017Zm-2.814-.76c-.183.145-.381.27-.591.372a2.65 2.65 0 0 1-.659.22 3.723 3.723 0 0 1-.718.067 1.907 1.907 0 0 1-.802-.152c-.207-.09-.38-.24-.499-.431a1.263 1.263 0 0 1-.169-.667 1.28 1.28 0 0 1 .22-.794c.184-.215.433-.363.71-.423a5.15 5.15 0 0 1 1.317-.135h1.48l-.008 1.677a2.26 2.26 0 0 1-.28.266ZM26.491 21.736c-.017-.006-.033-.015-.05-.021a5.813 5.813 0 0 0-2.146-.388 4.148 4.148 0 0 0-2.103.557 4.14 4.14 0 0 0-1.563 1.613 5.197 5.197 0 0 0-.591 2.577 5.21 5.21 0 0 0 .447 2.247 3.351 3.351 0 0 0 1.285 1.46c.605.357 1.299.536 2.001.516.431.003.86-.054 1.276-.169.414-.119.81-.295 1.174-.523.127-.079.253-.166.38-.258l.212.781h1.402V17.39l-1.724.236v4.11Zm-.904 6.948a3.537 3.537 0 0 1-1.208.245 2.74 2.74 0 0 1-1.385-.33 2.114 2.114 0 0 1-.878-1.013 4.231 4.231 0 0 1-.305-1.715c-.02-.601.096-1.199.338-1.75.207-.445.546-.817.972-1.063a2.994 2.994 0 0 1 1.512-.364 5.106 5.106 0 0 1 1.596.245c.083.027.174.062.262.094v5.207c-.287.175-.59.324-.905.444h.001ZM30.85 30.128h1.722v-8.785l-1.723.253v8.532ZM32.327 17.804a1.094 1.094 0 0 0-.582-.16 1.136 1.136 0 0 0-.592.16 1.24 1.24 0 0 0-.43.422 1.095 1.095 0 0 0-.161.583c-.002.208.054.412.16.591.104.177.252.323.431.423.18.101.385.154.591.152.205.002.406-.05.583-.152.174-.1.317-.247.414-.423.102-.18.154-.384.152-.591a1.14 1.14 0 0 0-.152-.583 1.194 1.194 0 0 0-.414-.422ZM42.844 23.396a3.693 3.693 0 0 0-1.495-1.53 4.638 4.638 0 0 0-2.29-.54 4.612 4.612 0 0 0-2.306.558 3.896 3.896 0 0 0-1.537 1.57 4.97 4.97 0 0 0-.549 2.4 5.177 5.177 0 0 0 .515 2.39c.324.65.84 1.184 1.478 1.53.688.36 1.455.54 2.23.523a4.759 4.759 0 0 0 2.332-.557 3.933 3.933 0 0 0 1.58-1.588 4.98 4.98 0 0 0 .566-2.433 4.896 4.896 0 0 0-.524-2.323Zm-1.597 4.13c-.19.44-.511.809-.92 1.056a2.625 2.625 0 0 1-1.352.347 2.403 2.403 0 0 1-1.318-.355 2.38 2.38 0 0 1-.878-1.064 4.26 4.26 0 0 1-.32-1.757c-.02-.586.089-1.169.32-1.707.19-.423.505-.777.904-1.013a2.736 2.736 0 0 1 1.394-.338c.38-.01.757.062 1.106.21.306.139.574.35.778.617.217.29.375.62.464.972.106.411.157.834.152 1.259a4.207 4.207 0 0 1-.33 1.773Z"/></svg>
